X:1
T: Almack's Hornpipe
C:
R:Reel
I:speed 232
Q:232
K:A
M:4/4
L:1/8
|:cB|Ac EG Ac ec|df Bd ag bg|ae ce fd BA|GA Bc dE cB|
Ac EG Ac ec|df Bd ag bg|((3agf) ec BE FG|A2c2 A2:|
|:cd|ea ce Ac ea|fa df Bd fa|gb eg Be GB|((3EGB) ((3egb) e'2cd|
ea ce Ac ea|fa df Bd ba|gf ed cB FG|A2c2 A2:|
